assets/img/svg/footer-tel.svg

<svg width="19" height="19" viewBox="0 0 19 19" fill="none" xmlns="http://www.w3.org/2000/svg">
<path d="M17.7731 13.7357C17.5794 13.5293 16.8955 12.9193 15.6382 12.1121C14.3717 11.298 13.4376 10.7903 13.1697 10.6719C13.1461 10.6614 13.1201 10.6576 13.0945 10.6608C13.0688 10.664 13.0446 10.6741 13.0242 10.6901C12.5927 11.0267 11.8661 11.6449 11.8271 11.6783C11.5755 11.8939 11.5755 11.8939 11.3695 11.8268C11.0074 11.708 9.8822 11.1106 8.90177 10.1279C7.92134 9.14524 7.29308 7.99225 7.17433 7.63043C7.10642 7.42411 7.10642 7.42411 7.32277 7.1725C7.35616 7.13354 7.97478 6.40694 8.31136 5.97573C8.32732 5.95542 8.33745 5.93115 8.34065 5.90552C8.34386 5.87989 8.34002 5.85387 8.32954 5.83026C8.21116 5.56196 7.70351 4.62829 6.88933 3.36174C6.08109 2.10485 5.47175 1.42092 5.26542 1.22721C5.24649 1.20934 5.22308 1.19692 5.19768 1.19123C5.17227 1.18555 5.14581 1.18683 5.12107 1.19493C4.39984 1.44277 3.70396 1.75903 3.04294 2.13936C2.40482 2.51031 1.80068 2.93687 1.23757 3.41407C1.21791 3.43078 1.20318 3.45253 1.19494 3.47698C1.1867 3.50143 1.18527 3.52766 1.19081 3.55286C1.26837 3.9143 1.63909 5.42317 2.78948 7.51317C3.96325 9.64622 4.77669 10.7391 6.50042 12.4569C8.22415 14.1747 9.35153 15.0371 11.4868 16.2109C13.5768 17.3613 15.0864 17.7323 15.4471 17.8092C15.4724 17.8146 15.4986 17.8132 15.5231 17.805C15.5476 17.7967 15.5695 17.782 15.5863 17.7624C16.0634 17.1993 16.4898 16.5952 16.8606 15.957C17.2409 15.296 17.5571 14.6001 17.805 13.8789C17.813 13.8544 17.8142 13.8281 17.8086 13.8029C17.803 13.7778 17.7907 13.7545 17.7731 13.7357Z" fill="white"/>
</svg>

<svg width="19" height="19" fill="none" xmlns="http://www.w3.org/2000/svg"><path d="M17.773 13.736c-.194-.207-.878-.817-2.135-1.624-1.266-.814-2.2-1.322-2.468-1.44a.142.142 0 00-.146.018c-.431.337-1.158.955-1.197.988-.252.216-.252.216-.457.149-.363-.119-1.488-.716-2.468-1.7-.98-.982-1.609-2.135-1.728-2.497-.068-.206-.068-.206.149-.457.033-.04.652-.766.988-1.197a.142.142 0 00.019-.146c-.119-.268-.626-1.202-1.44-2.468C6.08 2.105 5.471 1.42 5.264 1.227a.145.145 0 00-.144-.032c-.721.248-1.417.564-2.078.944-.638.371-1.242.798-1.805 1.275a.142.142 0 00-.047.139c.077.361.448 1.87 1.598 3.96C3.963 9.646 4.777 10.74 6.5 12.457c1.724 1.718 2.852 2.58 4.987 3.754 2.09 1.15 3.6 1.521 3.96 1.598a.144.144 0 00.14-.047c.476-.563.903-1.167 1.274-1.805.38-.661.696-1.357.944-2.078a.144.144 0 00-.032-.143z" fill="#fff"/></svg>
